icons/svg/seamark/restriction_fishing.svg

<?xml version="1.0" encoding="UTF-8" standalone="no"?>
<svg
   xmlns:dc="http://purl.org/dc/elements/1.1/"
   xmlns:cc="http://creativecommons.org/ns#"
   xmlns:rdf="http://www.w3.org/1999/02/22-rdf-syntax-ns#"
   xmlns:svg="http://www.w3.org/2000/svg"
   xmlns="http://www.w3.org/2000/svg"
   xmlns:sodipodi="http://sodipodi.sourceforge.net/DTD/sodipodi-0.dtd"
   xmlns:inkscape="http://www.inkscape.org/namespaces/inkscape"
   width="320"
   height="320"
   id="svg2"
   version="1.1"
   inkscape:version="0.48.4 r9939"
   sodipodi:docname="restriction_no_fishing.svg">
  <defs
     id="defs13">
    <inkscape:path-effect
       effect="gears"
       id="path-effect3774"
       is_visible="true"
       teeth="6"
       phi="-1.2" />
    <inkscape:path-effect
       effect="bend_path"
       id="path-effect3772"
       is_visible="false"
       bendpath="m 95.790098,316.51174 c 144.429032,-206.42506 223.313032,-11.7428 339.548092,0"
       prop_scale="1.19"
       scale_y_rel="false"
       vertical="false"
       bendpath-nodetypes="cc" />
  </defs>
  <sodipodi:namedview
     pagecolor="#ffffff"
     bordercolor="#666666"
     borderopacity="1"
     objecttolerance="10"
     gridtolerance="10"
     guidetolerance="10"
     inkscape:pageopacity="0"
     inkscape:pageshadow="2"
     inkscape:window-width="1326"
     inkscape:window-height="739"
     id="namedview11"
     showgrid="false"
     inkscape:zoom="1.6275861"
     inkscape:cx="67.638167"
     inkscape:cy="166.36821"
     inkscape:window-x="40"
     inkscape:window-y="1024"
     inkscape:window-maximized="1"
     inkscape:current-layer="svg2"
     inkscape:snap-bbox="true"
     inkscape:object-nodes="true"
     inkscape:snap-midpoints="true"
     inkscape:snap-grids="false"
     inkscape:snap-bbox-edge-midpoints="true"
     showguides="true"
     inkscape:guide-bbox="true">
    <inkscape:grid
       type="xygrid"
       id="grid2990"
       empspacing="5"
       visible="true"
       enabled="true"
       snapvisiblegridlinesonly="true"
       spacingx="10px"
       spacingy="10px"
       dotted="false" />
    <sodipodi:guide
       orientation="1,0"
       position="55.202458,260.58927"
       id="guide3872" />
    <sodipodi:guide
       orientation="1,0"
       position="265.17816,340"
       id="guide3874" />
    <sodipodi:guide
       orientation="0,1"
       position="317.80107,264.96094"
       id="guide3876" />
    <sodipodi:guide
       orientation="0,1"
       position="325.098,54.759006"
       id="guide3878" />
  </sodipodi:namedview>
  <metadata
     id="metadata2975">image/svg+xmlen<rdf:RDF>
  <cc:Work
     rdf:about="">
    <dc:format>image/svg+xml</dc:format>
    <dc:type
       rdf:resource="http://purl.org/dc/dcmitype/StillImage" />
    <dc:title />
  </cc:Work>
</rdf:RDF>
</metadata>
  <path
     style="color:#000000;fill:#000000;fill-opacity:1;fill-rule:nonzero;stroke-width:0.96049488;stroke-linecap:butt;stroke-linejoin:miter;stroke-miterlimit:4;stroke-opacity:1;stroke-dasharray:none;stroke-dashoffset:0;marker:none;visibility:visible;display:inline;overflow:visible;enable-background:accumulate"
     d="m 207.48109,93.895825 c 4.24863,0.11734 19.27878,-0.418726 20.55559,1.817903 0.0107,0.340938 -2.05894,1.968299 -3.83465,4.270181 -3.32777,4.313851 -8.44362,10.920681 -7.61248,11.683821 0.43187,0.39656 4.12076,-2.49356 10.88849,-7.73556 5.80201,-4.493987 6.8345,-3.36455 3.43699,3.73996 -4.06696,8.50442 -10.94311,18.15177 -25.27078,30.53513 -0.15338,0.15673 -0.30933,0.30949 -0.46394,0.46395 -0.0945,6.80731 -1.46022,14.34106 -4.70573,18.03701 -8.52383,9.7069 -10.13816,2.40933 -15.40484,-3.6358 -4.39366,2.50845 -8.85001,4.93028 -13.19875,7.603 -0.68983,0.62323 -3.17636,1.9992 -5.52,3.03932 -13.10671,7.28005 -24.34378,12.80537 -31.8228,22.00423 -7.31061,8.09981 -7.21019,18.46654 -9.51559,28.31955 -0.24522,0.25705 -0.78951,2.80956 -1.20248,5.66201 -1.12376,7.76197 -2.72933,8.41567 -5.41583,2.24398 -2.20672,-5.06942 -8.14224,-15.70268 -9.43039,-16.89137 -5.44423,-2.76655 -11.822605,-6.4086 -17.57309,-8.5593 -2.840254,-0.78332 -4.871614,-2.42719 -4.061879,-3.27602 0.133899,-0.14039 0.932581,-0.50511 1.798969,-0.82373 0.866381,-0.31863 3.11757,-1.15372 4.951891,-1.84632 1.834313,-0.69258 4.266666,-1.34091 5.425317,-1.42024 6.105572,-1.27039 11.268892,-4.09075 15.565822,-8.76759 4.01028,-6.01946 9.72424,-13.30775 11.31456,-21.73912 3.56055,-11.84324 3.89559,-12.82914 5.965,-17.15648 1.12508,-2.35266 2.04281,-4.42475 2.03568,-4.59211 -0.007,-0.16734 -0.96668,-0.25792 -2.13036,-0.2083 -1.16369,0.0496 -2.35633,-0.24681 -2.63218,-0.65331 -0.27582,-0.40653 0.62603,-3.18098 1.9694,-6.18277 1.56504,-3.49711 2.52769,-7.34676 2.68898,-10.71806 0.12979,-2.71294 0.63957,-5.15116 1.1646,-5.64308 0.0351,-0.0328 0.0691,-0.0511 0.10415,-0.0662 0.55942,-0.24249 5.04873,-0.0218 9.97954,0.50182 l 8.96644,0.94683 3.12453,-2.68899 c 14.88465,-11.66762 31.14904,-17.047671 49.85982,-18.264272 z m -0.55862,7.214805 c -0.72742,0 -1.45198,0.27792 -2.00727,0.83321 -1.1106,1.11059 -1.1106,2.91342 0,4.02401 1.11059,1.11059 2.91341,1.11059 4.024,0 1.11059,-1.11059 1.1106,-2.91341 0,-4.02401 -0.55529,-0.55529 -1.28932,-0.83321 -2.01673,-0.83321 z"
     id="path1932"
     inkscape:connector-curvature="0" />
</svg>

<svg width="320" height="320" viewBox="0 0 320 320" fill="none" xmlns="http://www.w3.org/2000/svg">
<path d="M207.481 93.8965C211.73 94.0138 226.76 93.4778 228.037 95.7144C228.047 96.0553 225.978 97.6827 224.202 99.9846C220.874 104.298 215.758 110.905 216.59 111.668C217.021 112.065 220.71 109.175 227.478 103.933C233.28 99.4388 234.312 100.568 230.915 107.673C226.848 116.177 219.972 125.825 205.644 138.208C205.491 138.365 205.335 138.517 205.18 138.672C205.086 145.479 203.72 153.013 200.475 156.709C191.951 166.416 190.336 159.118 185.07 153.073C180.676 155.582 176.22 158.003 171.871 160.676C171.181 161.299 168.695 162.675 166.351 163.715C153.244 170.995 142.007 176.521 134.528 185.72C127.218 193.819 127.318 204.186 125.013 214.039C124.767 214.296 124.223 216.849 123.81 219.701C122.686 227.463 121.081 228.117 118.394 221.945C116.188 216.876 110.252 206.242 108.964 205.054C103.52 202.287 97.1412 198.645 91.3908 196.494C88.5505 195.711 86.5191 194.067 87.3289 193.218C87.4628 193.078 88.2615 192.713 89.1278 192.395C89.9942 192.076 92.2454 191.241 94.0797 190.548C95.9141 189.856 98.3464 189.208 99.5051 189.128C105.611 187.858 110.774 185.037 115.071 180.361C119.081 174.341 124.795 167.053 126.385 158.621C129.946 146.778 130.281 145.792 132.35 141.465C133.476 139.112 134.393 137.04 134.386 136.873C134.379 136.706 133.419 136.615 132.256 136.665C131.092 136.714 129.899 136.418 129.624 136.011C129.348 135.605 130.25 132.83 131.593 129.829C133.158 126.331 134.121 122.482 134.282 119.11C134.412 116.398 134.922 113.959 135.447 113.467C135.482 113.435 135.516 113.416 135.551 113.401C136.11 113.159 140.599 113.379 145.53 113.903L154.497 114.85L157.621 112.161C172.506 100.493 188.77 95.1132 207.481 93.8966V93.8965ZM206.922 101.111C206.195 101.111 205.47 101.389 204.915 101.944C203.805 103.055 203.805 104.858 204.915 105.969C206.026 107.079 207.829 107.079 208.939 105.969C210.05 104.858 210.05 103.055 208.939 101.944C208.384 101.389 207.65 101.111 206.922 101.111Z" fill="black"/>
</svg>
